X:20
T:Orange Rogue
Z: id:dc-setdance-22
M:6/8
L:1/8
K:G Major
f|ege dBA|GEF G2A|BAB def|g2b agf|!
ege dBA|GEF G2A|BAB d^cd|e3 e2:|!
f|g2e a2f|g2d Bcd|g2e agf|g3 B2d|!
g2e a2f|g2e fed|BAB def|g2b ag|]!

